desc:JJ-Test-JSFX-04

note: strings test

@init
str01 = "Hello";  // => 10000
str02 = "";       // => 10001
str03 = "World";  // => 10002
str04 = "";       // => 10001
str05 = "Hello";  // => 10000
str06 = "World";  // => 10002
str07 = " ";      // => 10003
str10 = #;        // => 190000
str11 = #;        // => 190001
str12 = #;        // => 190002
str13 = #;        // => 190003
str20 = #A;       // => 90000
str21 = #B;       // => 90001
str22 = #C;       // => 90002
str23 = #B;       // => 90001
str24 = #A;       // => 90000

